outputs/icons/action/check_circle_outline_round.svg

<svg xmlns="http://www.w3.org/2000/svg" width="1200" height="1200" fill="none"><g clip-path="url(#a)"><path fill="#000" d="M600 100c-276 0-500 224-500 500s224 500 500 500 500-224 500-500-224-500-500-500m0 900c-220.5 0-400-179.5-400-400s179.5-400 400-400 400 179.5 400 400-179.5 400-400 400m194-585.5-294 294-94-94c-19.5-19.5-51-19.5-70.5 0s-19.5 51 0 70.5L465 814.5c19.5 19.5 51 19.5 70.5 0L865 485c19.5-19.5 19.5-51 0-70.5s-51.5-19.5-71 0"/></g><defs><clipPath id="a"><path fill="#fff" d="M0 0h1200v1200H0z"/></clipPath></defs></svg>

<svg width="1200" height="1200" viewBox="0 0 1200 1200" fill="none" xmlns="http://www.w3.org/2000/svg"><g clip-path="url(#clip0_223_1864)"><path d="M600 100C324 100 100 324 100 600C100 876 324 1100 600 1100C876 1100 1100 876 1100 600C1100 324 876 100 600 100ZM600 1000C379.5 1000 200 820.5 200 600C200 379.5 379.5 200 600 200C820.5 200 1000 379.5 1000 600C1000 820.5 820.5 1000 600 1000ZM794 414.5L500 708.5L406 614.5C386.5 595 355 595 335.5 614.5C316 634 316 665.5 335.5 685L465 814.5C484.5 834 516 834 535.5 814.5L865 485C884.5 465.5 884.5 434 865 414.5C845.5 395 813.5 395 794 414.5Z" fill="#1D1E23"/></g><defs><clipPath id="clip0_223_1864"><path width="24" fill="white" d="M0 0H1200V1200H0V0z"/></clipPath></defs></svg>
